src/raw/lock-shield/icon_32.svg

<svg width="32" height="32" viewBox="0 0 32 32" fill="none" xmlns="http://www.w3.org/2000/svg">
<path d="M3.00004 5.23069V15.3827C3.00007 18.5915 3.97247 21.7251 5.78906 24.3702C7.60564 27.0154 10.1811 29.0479 13.176 30.2L14.564 30.7334C15.4884 31.0889 16.5117 31.0889 17.436 30.7334L18.824 30.2C21.819 29.0479 24.3944 27.0154 26.211 24.3702C28.0276 21.7251 29 18.5915 29 15.3827V5.23069C29.0026 4.84867 28.8947 4.47404 28.6894 4.15187C28.4841 3.8297 28.1901 3.57371 27.8427 3.41469C24.1092 1.78508 20.0736 0.962237 16 1.00002C11.9265 0.962237 7.89093 1.78508 4.15738 3.41469C3.81002 3.57371 3.51599 3.8297 3.31068 4.15187C3.10536 4.47404 2.99749 4.84867 3.00004 5.23069Z" stroke="#71717A" stroke-width="1.5" stroke-linecap="round" stroke-linejoin="round"/>
<path d="M20 13H12C10.8954 13 10 13.8954 10 15V21C10 22.1046 10.8954 23 12 23H20C21.1046 23 22 22.1046 22 21V15C22 13.8954 21.1046 13 20 13Z" stroke="#71717A" stroke-width="1.5" stroke-linecap="round" stroke-linejoin="round"/>
<path d="M14.5 18H17.5" stroke="#71717A" stroke-width="1.5" stroke-linecap="round" stroke-linejoin="round"/>
<path d="M12 13V11C12 9.93913 12.4214 8.92172 13.1716 8.17157C13.9217 7.42143 14.9391 7 16 7C17.0609 7 18.0783 7.42143 18.8284 8.17157C19.5786 8.92172 20 9.93913 20 11V13" stroke="#71717A" stroke-width="1.5" stroke-linecap="round" stroke-linejoin="round"/>
</svg>

<svg xmlns="http://www.w3.org/2000/svg" width="32" height="32" fill="none"><path stroke="#71717A" stroke-linecap="round" stroke-linejoin="round" stroke-width="2" d="M3 5.23v10.152A15.876 15.876 0 0 0 13.178 30.2l1.388.533a4 4 0 0 0 2.871 0l1.389-.533A15.876 15.876 0 0 0 29 15.382V5.23a1.982 1.982 0 0 0-1.157-1.816A28.933 28.933 0 0 0 16 1 28.933 28.933 0 0 0 4.158 3.414 1.983 1.983 0 0 0 3 5.23Z"/><path stroke="#71717A" stroke-linecap="round" stroke-linejoin="round" stroke-width="2" d="M20 13h-8a2 2 0 0 0-2 2v6a2 2 0 0 0 2 2h8a2 2 0 0 0 2-2v-6a2 2 0 0 0-2-2ZM14.5 18h3M12 13v-2a4 4 0 1 1 8 0v2"/></svg>
